X: 45
T: Chag Asor
C: Naomi Shemer 1958
N: record: Blue-Star 84 FOR EDUCATIONAL USE YE-10008
M: 2/4
L: 1/8
K: C 
Q:1/4=144
%%MIDI program 20 Reed Organ
%%MIDI bassprog 32 Acoustic Bass
"C"GG|"F"FF|"C"EE|C2|"F"FF|"C"GG|"F"A2|"C"c2|\
GG|"F"FF|"C"EE|C2|"F"FF|"C"EE|"Dm"D2|z2:|
"F"AA|DD|AA|"G"B2|z2|G2|"F"FE|FG|z2|\
AA|DD|AA|"G"B2|z2|G2|"C"Ac|cc|z2:|



